X: 1
T: Ned Coleman's
M: 6/8
L: 1/8
R: jig
K: Gmaj
D|:G3 EDE|GAB d3|ege dge|dBA GED|
G3 EDE|GAB d3|ege dge|dBA G2 D:|
|:g3 edB|dBA GED|DGG EDE|GAB d3|
g3 edB|dBA GED|G3 EGB|dBA G3:|
